!!COM: Schubert, Franz
!!!CNT: Deutscher
!!!TXO: Deutsch
!!!LYR: Friedrich Ru2ckert
!!!OTL: "Dass sie hier gewesen"
!!!OPS: Op. 59
!!!ONM: No. 2
!!!ODT: 1823/
!!NB: Vocal melody only encoded.
!!NB: Original key: C major
**kern	**silbe
*staff1	*
*clefG2	*
*k[b-e-]	*
*M2/4	*
*MM[sehr langsam]	*
=1	=1
2r	.
=2	=2
4r	.
{8.bn	{Dass
16b	der
=3	=3
4ee-	Ost-
8dd	-wind
8r	.
=4	=4
4cc	Du2f-
8bn	-te
8r	.
=5	=5
[2dd	hau-
=6	=6
8dd]	|
8cc	-chet
8g	in
8cc	die
=7	=7
2b-	Lu2f-
=8	=8
4a}	-te,}
4r	.
=9	=9
4r	.
{8.cc	{da-
16cc	-durch
=10	=10
4bn	tut
8cc	er
8ee-	|
=11	=11
4.bn	dund,
[8dd	|
=12	=12
8dd]	|
8cc}	|}
4r	.
=13	=13
{8b-	{dass
8a	du
8g	hier
8f	ge-
=14	=14
8f	-we
8b-	|
8.dd	-sen,
16b-	|
=15	=15
8b-	dass
8a	du
8g	hier
8f	ge-
=16	=16
4f	-we-
8b-}	-sen;}
8r	.
=17	=17
2r	.
=18	=18
2r	.
=19	=19
2r	.
=20	=20
4r	.
{8.bn	{dass
16b	hier
=21	=21
4ee-	Tra2-
8dd	-nen
8r	.
=22	=22
4cc	rin-
8bn	-nen
8r	.
=23	=23
[2dd	da-
=24	=24
8dd]	|
8cc	-durch
8g	wirst
8cc	du
=25	=25
2b-	in-
=26	=26
4a}	-nen,}
4r	.
=27	=27
4r	.
{8.cc	{wa2rs
16cc	dir
=28	=28
4bn	sonst
8cc	nich
8ee-	|
=29	=29
4.bn	kund,
[8dd	|
=30	=30
8dd]	|
8cc}	|}
4r	.
=31	=31
{8b-	{dass
8a	ich
8g	hier
8f	ge-
=32	=32
8f	-we-
8b-	|
8.dd	-sen,
16b-	|
=33	=33
8b-	dass
8a	ich
8g	hier
8f	ge-
=34	=34
4f	-we-
8b-}	-sen.}
8r	.
=35	=35
2r	.
=36	=36
2r	.
=37	=37
2r	.
=38	=38
{8b-	{Scho2n-
8a	-heit
8g	o-
8f	-der
=39	=39
8dd	Lie-
8cc	-be,
8b-	ob
8a	ver-
=40	=40
4.ff	-steckt
8ee-	sie
=41	=41
8.bn	blie-
32cc	|
32dd	|
4cc}	-be?}
=42	=42
2r	.
=43	=43
2r	.
=44	=44
{[2b-	{Du2f-
=45	=45
2b-_	|
=46	=46
4.b-]	|
8b-	-te
=47	=47
8ee-	tun
8dd	|
8cc	es
8b-	und
=48	=48
[2b-	Tra2-
=49	=49
4b-]	|
8.cc	|
16a-	-nen
=50	=50
2g-}	kund,}
=51	=51
{8.a-	{dass
16cc-	sie
8dd-	hier
8ee-	ge-
=52	=52
4g-	-we-
8f	-sen,
8r	.
=53	=53
8.a-	dass
16cc-	sie
8dd-	hier
8ee-	ge-
=54	=54
4g-	-we-
8f}	-sen,}
8r	.
=55	=55
2r	.
=56	=56
2r	.
=57	=57
{4cc	{Du2f-
8bn	-te
8r	.
=58	=58
4ee-	tun
8dd	es
8dd	und
=59	=59
4.dd	Tra2-
8cc	-nen
=60	=60
4g}	kund,}
4r	.
=61	=61
{8b-	{dass
8a	sie
8g	hier
8f	ge-
=62	=62
8f	-we-
8b-	|
8.dd	-sen,
16b-	|
=63	=63
8b-	dass
8a	sie
8g	hier
8f	ge-
=64	=64
4f	-we-
8b-}	-sen.}
8r	.
=65	=65
2r	.
==	==
*-	*-